X: 93
T: Broyges tantz
T: Dance of Anger and Reconcilliation
Q: 1/4=90-95
B: Henry Sapoznik "The Compleat Klezmer" 1987
B: Manakhem Kipnis "60 Folkslider" Warsaw 1918
M: 2/4
L: 1/16
K: Em
[| "Em"BBBB B2AG | ABG2 G2G2 | "B7"FG^AB AGFE | "Em"FGE2 E2-E2 |
|  "Em"eBBB B2AG | ABG2 G2G2 | "B7"FG^AB AGFE | "Em"FGE2 E2-E2 |]
|: "Em"B,2EB, EB,E2 | E2GE GEG2 | "B7"FG^AB AGFE | "Em"FGE2 E2-E2 :|
